/* XPM */
static char *coin_xpm[] = {
"32 32 4 1",
"  c None",
"Y c #ffd84a",
"o c #b8860b",
"h c #fff7c0",
"                                ",
"                                ",
"                                ",
"                                ",
"                                ",
"                                ",
"                                ",
"                o               ",
"            oYYYYYYYo           ",
"           YYYYYYYYYYY          ",
"          YYYYYYYYYYYYY         ",
"         YYYYYYhhhYYYYYY        ",
"        oYYYYYYhhhYYYYYYo       ",
"        YYYYYYYhhhYYYYYYY       ",
"        YYYYYYYhhhYYYYYYY       ",
"        YYYhhhhhhhhhhhYYY       ",
"       oYYYhhhhhhhhhhhYYYo      ",
"        YYYhhhhhhhhhhhYYY       ",
"        YYYYYYYhhhYYYYYYY       ",
"        YYYYYYYhhhYYYYYYY       ",
"        oYYYYYYhhhYYYYYYo       ",
"         YYYYYYhhhYYYYYY        ",
"          YYYYYYYYYYYYY         ",
"           YYYYYYYYYYY          ",
"            oYYYYYYYo           ",
"                o               ",
"                                ",
"                                ",
"                                ",
"                                ",
"                                ",
"                                ",
};
