/* XPM */
static char *exit_xpm[] = {
"32 32 4 1",
"  c None",
"D c #5b2a1a",
"d c #a83838",
"k c #000000",
"                                ",
"                                ",
"                                ",
"                                ",
"      DDDDDDDDDDDDDDDDDDDD      ",
"      DDDDDDDDDDDDDDDDDDDD      ",
"      DDddddddddddddddddDD      ",
"      DDddddddddddddddddDD      ",
"      DDddddddddddddddddDD      ",
"      DDddddddddddddddddDD      ",
"      DDddddddddddddddddDD      ",
"      DDddddddddddddddddDD      ",
"      DDddddddddddddddddDD      ",
"      DDddddddddddddddddDD      ",
"      DDddddddddddddddddDD      ",
"      DDddddddddddddddddDD      ",
"      DDddddddddddddddddDD      ",
"      DDdddddddddddddkddDD      ",
"      DDddddddddddddkkkdDD      ",
"      DDdddddddddddddkddDD      ",
"      DDddddddddddddddddDD      ",
"      DDddddddddddddddddDD      ",
"      DDddddddddddddddddDD      ",
"      DDddddddddddddddddDD      ",
"      DDddddddddddddddddDD      ",
"      DDddddddddddddddddDD      ",
"      DDddddddddddddddddDD      ",
"      DDddddddddddddddddDD      ",
"      DDddddddddddddddddDD      ",
"      DDddddddddddddddddDD      ",
"      DDDDDDDDDDDDDDDDDDDD      ",
"      DDDDDDDDDDDDDDDDDDDD      ",
};
