/* XPM */
static char *floor_xpm[] = {
"32 32 3 1",
". c #3aa9d4",
"o c #5cc4e0",
"O c #2c92bc",
"O.......O.......O.......O.......",
"................................",
"................................",
"................................",
"....o.......o.......o.......o...",
"................................",
"................................",
"................................",
"O.......O.......O.......O.......",
"................................",
"................................",
"................................",
"....o.......o.......o.......o...",
"................................",
"................................",
"................................",
"O.......O.......O.......O.......",
"................................",
"................................",
"................................",
"....o.......o.......o.......o...",
"................................",
"................................",
"................................",
"O.......O.......O.......O.......",
"................................",
"................................",
"................................",
"....o.......o.......o.......o...",
"................................",
"................................",
"................................",
};
