/* XPM */
static char *player_xpm[] = {
"32 32 5 1",
"  c None",
"B c #1976d2",
"b c #0d47a1",
"W c #ffffff",
"k c #000000",
"                                ",
"                                ",
"                                ",
"                                ",
"                b               ",
"            BBBBBBBBB           ",
"          BBBBBBBBBBBBB         ",
"         BBBBBBBBBBBBBBB        ",
"        BBBBBBBBBBBBBBBBB       ",
"       BBBBBBBBBBBBBBBBBBB      ",
"      BBBBBBBBBBBBBBBBBBBBB     ",
"      BBBBBBBBBBBBBBBBBBBBB     ",
"     BBBBBBBBBBBBBBWWWBBBBBB    ",
"     BBBBBBBBBBBBBBWkWBBBBBB    ",
"     BBBBBBBBBBBBBBWWWBBBBBB    ",
"     BBBBBBBBBBBBBBBBBBBBBBB    ",
"    bBBBBBBBBBBBBBBBBBBBBBBBb   ",
"     BBBBBBBBBBBBBBBBBBBBBBB    ",
"     BBBBBBBBBBBBBBBBBBBBBBB    ",
"     BBBBBBBBBBBBBBBBBBBBBBB    ",
"     BBBBBBBBBBBBBBBBBBBBBBB    ",
"      BBBBBBBBBBBBBBBBBBBBB     ",
"      BBBBBBBBBBBBBBBBBBBBB     ",
"       BBBBBBBBBBBBBBBBBBB      ",
"        BBBBBBBBBBBBBBBBB       ",
"         BBBBBBBBBBBBBBB        ",
"          BBBBBBBBBBBBB         ",
"            BBBBBBBBB           ",
"                b               ",
"                                ",
"                                ",
"                                ",
};
