/* XPM */
static char *wall_xpm[] = {
"32 32 2 1",
"# c #5a5550",
". c #2a2520",
".##############.###############.",
".##############.###############.",
".##############.###############.",
".##############.###############.",
".##############.###############.",
".##############.###############.",
".##############.###############.",
".##############.###############.",
".##############.###############.",
".##############.###############.",
"................................",
".######.###############.#######.",
".######.###############.#######.",
".######.###############.#######.",
".######.###############.#######.",
".######.###############.#######.",
".######.###############.#######.",
".######.###############.#######.",
".######.###############.#######.",
".######.###############.#######.",
".######.###############.#######.",
"................................",
".##############.###############.",
".##############.###############.",
".##############.###############.",
".##############.###############.",
".##############.###############.",
".##############.###############.",
".##############.###############.",
".##############.###############.",
".##############.###############.",
"................................",
};
